icons/svg/participant-unknown_14.svg

<?xml version="1.0" encoding="UTF-8"?>
<svg width="14px" height="14px" viewBox="0 0 14 14" version="1.1" xmlns="http://www.w3.org/2000/svg" xmlns:xlink="http://www.w3.org/1999/xlink">
    <!-- Generator: Sketch 57.1 (83088) - https://sketch.com -->
    <title>participant-unknown_14</title>
    <desc>Created with Sketch.</desc>
    <g id="Icons-Webex" stroke="none" stroke-width="1" fill="none" fill-rule="evenodd">
        <g id="contacts/participant-unknown_14" fill="#171B1F">
            <path d="M6.9071,-0.0003 C9.3571,-0.0003 11.3491,2.0157 11.3491,4.4927 C11.3491,6.89892857 9.46930245,8.87012367 7.11594259,8.98079913 L6.9071,8.9857 L4.3601,8.9857 C3.02564545,8.9857 1.91260207,9.78022893 1.53498665,10.9822521 L1.4861,11.1567 L1.0231,12.9997 L9.9341,12.9997 C10.2111,12.9997 10.4341,13.2237 10.4341,13.4997 C10.4341,13.7459222 10.2579025,13.9494778 10.0242015,13.9916726 L9.9341,13.9997 L0.9161,13.9997 C0.6331,13.9997 0.3711,13.8717 0.1961,13.6487 C0.0452428572,13.4558429 -0.0211244898,13.2159653 0.00581428572,12.9762977 L0.0271,12.8567 L0.5161,10.9147 C0.9331,9.2257 2.3881,8.0807 4.1661,8.0007 C3.1371,7.1777 2.4641,5.9187 2.4641,4.4927 C2.4641,2.0157 4.4571,-0.0003 6.9071,-0.0003 Z M11.57,13.1235 C11.75,12.9335 12.09,12.9335 12.28,13.1235 C12.37,13.2135 12.42,13.3435 12.42,13.4735 C12.42,13.6035 12.37,13.7335 12.28,13.8335 C12.18,13.9235 12.05,13.9735 11.92,13.9735 C11.86,13.9735 11.79,13.9635 11.73,13.9335 C11.67,13.9135 11.62,13.8735 11.57,13.8335 C11.48,13.7335 11.42,13.6135 11.42,13.4735 C11.42,13.3435 11.48,13.2135 11.57,13.1235 Z M11.9831,7.4868 C13.0951,7.5198 14.0001,8.4658 14.0001,9.5958 C14.0001,10.5438 13.4591,11.0038 13.1001,11.3078 L13.011225,11.384175 L13.011225,11.384175 L12.9261,11.4598 L12.6591,11.7108 C12.5151,11.8448 12.4331,12.0368 12.4331,12.2358 C12.4331,12.5118 12.2091,12.7358 11.9331,12.7358 C11.6561,12.7358 11.4331,12.5118 11.4331,12.2358 C11.4331,11.8135778 11.5887543,11.4047877 11.866351,11.0923048 L11.9761,10.9798 L12.2431,10.7298 C12.3091,10.6688 12.3791,10.6078 12.4521,10.5458 C12.7711,10.2758 13.0001,10.0808 13.0001,9.5958 C13.0001,9.0108 12.5211,8.5028 11.9541,8.4868 C11.6771,8.4798 11.4091,8.5828 11.2061,8.7798 C10.9811,8.9998 10.8561,9.3028 10.8561,9.6338 C10.8561,9.9098 10.6321,10.1338 10.3561,10.1338 C10.0801,10.1338 9.8561,9.9098 9.8561,9.6338 C9.8561,9.0388 10.0941,8.4658 10.5091,8.0628 C10.9081,7.6748 11.4241,7.4658 11.9831,7.4868 Z M6.9071,0.9997 C5.0081,0.9997 3.4641,2.5667 3.4641,4.4927 C3.4641,6.4187 5.0081,7.9857 6.9071,7.9857 C8.8051,7.9857 10.3491,6.4187 10.3491,4.4927 C10.3491,2.5667 8.8051,0.9997 6.9071,0.9997 Z" id="fill"></path>
        </g>
    </g>
</svg>

<svg width="14" height="14" xmlns="http://www.w3.org/2000/svg"><path d="M6.907 0c2.45 0 4.442 2.016 4.442 4.493 0 2.406-1.88 4.377-4.233 4.488l-.209.005H4.36c-1.334 0-2.447.794-2.825 1.996l-.049.175L1.023 13h8.911a.5.5 0 01.09.992l-.09.008H.916a.92.92 0 01-.91-1.023l.021-.12.49-1.942C.932 9.225 2.387 8.08 4.166 8a4.484 4.484 0 01-1.703-3.508C2.464 2.016 4.457 0 6.907 0zm4.663 13.123c.18-.19.52-.19.71 0a.5.5 0 01.14.35c0 .13-.05.26-.14.36-.1.09-.23.14-.36.14-.06 0-.13-.01-.19-.04-.06-.02-.11-.06-.16-.1a.533.533 0 01-.15-.36c0-.13.06-.26.15-.35zm.413-5.636C13.095 7.52 14 8.466 14 9.596c0 .948-.54 1.408-.9 1.712l-.089.076-.085.076-.267.25a.719.719 0 00-.226.526.5.5 0 01-1 0c0-.422.156-.831.433-1.144l.11-.112.267-.25c.066-.061.136-.122.21-.184.318-.27.547-.465.547-.95 0-.585-.479-1.093-1.046-1.11a1.032 1.032 0 00-.748.294c-.225.22-.35.523-.35.854a.5.5 0 01-1 0c0-.595.238-1.168.653-1.571a1.983 1.983 0 011.474-.576zM6.907 1C5.008 1 3.464 2.567 3.464 4.493s1.544 3.493 3.443 3.493c1.898 0 3.442-1.567 3.442-3.493S8.805 1 6.907 1z" fill="#171B1F" fill-rule="evenodd"/></svg>
